X:178
T:Tommy Bhetty's
M:3/4
L:1/4
R:waltz
D:Altan: The Red Crow
N:Learned from Kira Ott
Z:Michael Abraham Shulman
K:G
D|:G>B d/B/|G>B d/B/|d b>a|g/a/ f/g/ e/f/|\
G>B d/B/|G>B d/B/|D F A|c B A|
G>B d/B/|G>B d/B/|d b>a|g/a/ f/g/ e/f/|\
d/gB/ B/c/-|c/dc/ A/F/|G B B/A/|1 G2 D:|2 G>g f/g/|
a f d|A F D|C b>a|g/a/ f/g/ e/f/|\
d>e d|B>A B|D F A|c B A|
d B/c/ d/B/|da|g/a/ f/g/ e/f/|\
d/gB/ B/c/-|c/dc/ A/F/|G B B/A/|1 G>g f/g/:|2 G2||
